X:1
T:Au joli bocquet
T:Au ioli bocquet
T:Jacobus Clemens non papa
T:Source : Neufiesme Livre de Chansons à 4 parties---Paris---N.du Chemin---1551. Editor : André Vierendeels (24/12/14).
C:Jacobus Clemens non papa
%%score [ 1 2 [ 3 4 ] ]
L:1/8
Q:1/4=94
M:2/2
K:F
V:1 treble nm="Superius" snm="S"
V:2 treble nm="Altus" snm="A"
V:3 treble-8 nm="Tenor 1" snm="T 1"
V:4 treble-8 nm="Tenor 2" snm="T 2"
V:1
 d3 d cB A2 | ABcc B2 A2 | z4 z2 c2- | cB A2 A2 G2 | A4 z2 c2- | cd e4 d2- | d2 c2 B2 A2- | %7
w: Au io- li boc- quet|croist la vi- o- let- te,|croist|_ la vi- o- let-|te, croist|_ la vi- o-|* let- * *|
 AG G4 F2 | G2 dd cd B2 | z2 d2 f4 | e2 d2 d2 c2 | d4 z4 | z4 d2 f2 | e2 d4 c2 | d2 c2 B2 G2 | A8 | %16
w: |te. Ie vis hier Ja- quet|di- re'à|Mi- che- let- *|te|di- re'à|Mi- che- let-||te:|
 z2 AA Bc d2 | d3 d d2 c2 | B4 dddd | c2 B2 cccc | B2 A2 A2 G2 |"^#" G2 F2 G4 |: A4 A2 A2 | %23
w: fai- sons un ban- quet|sur ce verd tron-|quet, lors de sa ma-|let- te, bel- l'et- vi- o-|let- te, ti- ra|un- pac- quet,|voi- re dict|
 c2 c2 c4 | B2 dd cB A2 | z8 | ABcc B2 A2 | B3 A AG A2 | A3 B c2 A2- | A2 G4 F2 | G8 :| %31
w: la fil- let-|te, au- io- ly boc- quet||croist le vi- o- let- te,|au io- li boc- quet|croist la vi- o-|* let- *|te.|
V:2
 G3 D EG F2 | FGAF G2 D2 | z4 z2 FF | F2 F2 D4 | D4 A4- | A2 c2 G4 | A3 G FE F2- | FE C2 D4 | %8
w: Au io- li boc- quet|croist la vi- o- let- te,|croist la|vi- o- let-|te, croist|_ la vi-|o- * * * let-|* * * te.|
 z2 GB AF G2 | z4 B3 A | G2 F2 E2 F2- | FE DC B,2 A,2 | G,2 G4 F2 | B2 G2 A4- | A4 GF ED | E4 F4 | %16
w: Ie vis hier Ja- quet|di- re'à|Mi- che- let- *||te, di- re'à|Mi- che- let-||* te:|
 z2 DD GE D2 | B3 B B2 A2 | G4 AABB | G2 G2 GGAA | G2 E2 F2 D2 | D2 D2 D4 |: F4 F2 F2 | A2 A2 G4 | %24
w: fai- sons un ban- quet|sur ce verd tron-|quet, lors de sa ma-|let- te, bel- l'et vi- o-|let- te, ti- ra|un pac- quet,|voi- re dict|la fil- let-|
 G2 GD EG F2 | z8 | FGAF G2 F2 | G3 F FD F2 | F2 F2 E2 F2 | D2 C2 D4 | D8 :| %31
w: te, au io- li boc- quet||croist la vi- o- let- te,|au io- li boc- quet|croist la vi- o-|let- * *|te.|
V:3
 z8 | z8 | d3 d cB A2 | ABcc B4 | A2 f3 fed | e2 c4 d2 | fd e2 d4 | z2 GA BG A2 | G4 z2 dd | %9
w: ||Au io- li boc- quet|croist la vi- o- let-|te, croist la vi- o-|let- te, au|io- li boc- quet|croist la vi- o- let-|te. Ie vis|
 cd B2 z4 | z8 | d2 f2 e2 d2- | d2 c2 d2 a2 | gf ed e2 e2 | f3 e dc d2- |"^#" d2 c2 d2 AA | %16
w: hier Ja- quet||di- re'à Mi- che-|* let- te, di-|à _ _ _ Mi- che-|let- * * * *|* * te: fai- sons|
 Bc d2 z4 | d3 d d2 f2 | d4 fffg | e2 d2 eeef | d2 c2 d2 B2 | A2 A2 G4 |: c4 c2 c2 | f2 f2 e4 | %24
w: un ban- quet|sur ce verd tron-|quet, lors de sa ma-|let- te, bel- l'et vi- o-|let- te, ti- ra|un pac- quet,|voi- re dict|la fil- let-|
 d4 z4 | d3 d cB A2 | z8 | d3 d cB A2 | A2 d2 c3 d | B2 AG A4 | G8 :| %31
w: te,|au io- li boc- quet,||au io- li boc- quet|croist la vi- o-|let- * * *|te.|
V:4
 z8 | z8 | G3 D EG F2 | FGAF G4 | D2 d3 dcB | A2 AB cA B2 | A4 z2 DE | FD E2 D4 | G4 z2 GB | %9
w: ||Au io- li boc- quet|croist la vi- o- let-|te, croist la vi- o-|let- te, au- io- li boc-|quet croist la|vi- o- let- *|te. Ie vis|
 AF G2 z4 | z8 | B3 A G2 F2 | E4 D2 D2 | G2 B2 A4 | D2 F2 G2 B2 | A4 D2 DD | GE D2 z4 | %17
w: hier Ja- quet||di- re'à Mi- che-|let- te, di-|re'à Mi- che-|let- * * *|* te: fai- sons|un ban- quet|
 G3 G B2 F2 | G4 ddBG | c2 G2 ccAF | G2 A2 F2 G2 | D2 D2 G4 |: F4 F2 F2 | F2 F2 C4 | G4 z4 | %25
w: sur ce verd tron-|quet, lors de sa ma-|let- te, bel- l'et vi- o-|let- te, ti- ra|un pac- quet,|voi- re dict|la fil- let-|te,|
 G3 D FG F2 | z8 | G3 D FG F2 | DEFG A2 F2 | G2 E2 D4 | G8 :| %31
w: au io- li boc- quet,||au io- li boc- quet|croist la vi- o- let- *||te.|

